images/le_2.svg

<?xml version="1.0" encoding="UTF-8" standalone="no"?>
<svg width="881px" height="991px" viewBox="0 0 881 991" version="1.1" xmlns="http://www.w3.org/2000/svg" xmlns:xlink="http://www.w3.org/1999/xlink">
    <!-- Generator: Sketch 40.1 (33804) - http://www.bohemiancoding.com/sketch -->
    <title>Group 3</title>
    <desc>Created with Sketch.</desc>
    <defs>
        <path d="M344.352751,320.224214 C433.004283,320.224214 504.87055,248.589774 504.87055,160.224214 C504.87055,71.8586537 433.004283,0.224213697 344.352751,0.224213697" id="path-1"></path>
        <mask id="mask-2" maskContentUnits="userSpaceOnUse" maskUnits="objectBoundingBox" x="0" y="0" width="160.517799" height="320" fill="white">
            <use xlink:href="#path-1"></use>
        </mask>
        <circle id="path-3" cx="782.5" cy="957.5" r="154.5"></circle>
        <mask id="mask-4" maskContentUnits="userSpaceOnUse" maskUnits="objectBoundingBox" x="0" y="0" width="309" height="309" fill="white">
            <use xlink:href="#path-3"></use>
        </mask>
    </defs>
    <g id="Page-1" stroke="none" stroke-width="1" fill="none" fill-rule="evenodd">
        <g id="Group-3" transform="translate(-56.000000, -126.000000)" stroke="#FFFFFF">
            <g id="Group-2">
                <path d="M729.654841,956.209067 L139.461805,958.258572 C62.9228318,958.258572 0.875734964,890.907595 0.875734964,807.837432 C0.875734964,724.762131 62.9310203,657.416293 139.461805,657.416293 L650.033513,656.597082" id="Rectangle" stroke-width="10" transform="translate(365.265288, 807.427827) rotate(-45.000000) translate(-365.265288, -807.427827) "></path>
                <g id="Group" transform="translate(471.596074, 395.902764) scale(-1, 1) rotate(-300.000000) translate(-471.596074, -395.902764) translate(219.096074, 43.402764)">
                    <path d="M349.50877,5 C156.473739,5 1.44950718e-12,161.47648 1.44950718e-12,354.5 C1.44950718e-12,547.525177 156.47226,704 349.490574,704 M349.490574,394 C327.681605,394 310,376.317976 310,354.5 C310,332.685966 327.679129,315.004359 349.5007,315.000001 M310,354.5 C310,376.317976 327.681605,394 349.490574,394 M349.490574,704 C156.47226,704 1.44950718e-12,547.525177 1.44950718e-12,354.5 C1.44950718e-12,161.47648 156.473739,5 349.50877,5 M349.5007,315.000001 C327.679129,315.004359 310,332.685966 310,354.5 L310,354.5 L310,354.5" id="Rectangle-2" stroke-width="10"></path>
                    <use id="Oval" mask="url(#mask-2)" stroke-width="20" xlink:href="#path-1"></use>
                </g>
            </g>
            <use id="Oval-Copy" mask="url(#mask-4)" stroke-width="20" xlink:href="#path-3"></use>
        </g>
    </g>
</svg>

<svg width="881" height="991" viewBox="0 0 881 991" xmlns="http://www.w3.org/2000/svg" xmlns:xlink="http://www.w3.org/1999/xlink"><title>Group 3</title><defs><path d="M344.353 320.224c88.651 0 160.518-71.634 160.518-160 0-88.365-71.867-160-160.518-160" id="path-1"/><mask id="mask-2" x="0" y="0" width="160.518" height="320" fill="#fff"><use xlink:href="#path-1"/></mask><circle id="path-3" cx="782.5" cy="957.5" r="154.5"/><mask id="mask-4" x="0" y="0" width="309" height="309" fill="#fff"><use xlink:href="#path-3"/></mask></defs><g id="Page-1" fill="none" fill-rule="evenodd"><g id="Group-3" transform="translate(-56 -126)" stroke="#FFF"><g id="Group-2"><path d="M728.132 654.97l-415.88 418.778c-54.122 54.122-145.62 50.371-204.36-8.368-58.743-58.743-62.483-150.244-8.368-204.36l360.45-361.607" id="Rectangle" stroke-width="10"/><g id="Group" transform="scale(-1 1) rotate(60 -147.136 -252.884)"><path d="M349.509 5C156.474 5 0 161.476 0 354.5 0 547.525 156.472 704 349.49 704m0-310c-21.808 0-39.49-17.682-39.49-39.5 0-21.814 17.68-39.496 39.5-39.5M310 354.5c0 21.818 17.682 39.5 39.49 39.5m0 310C156.473 704 0 547.525 0 354.5 0 161.476 156.474 5 349.509 5m-.008 310c-21.822.004-39.501 17.686-39.501 39.5" id="Rectangle-2" stroke-width="10"/><use id="Oval" mask="url(#mask-2)" stroke-width="20" xlink:href="#path-1"/></g></g><use id="Oval-Copy" mask="url(#mask-4)" stroke-width="20" xlink:href="#path-3"/></g></g></svg>
